X:1
T:Folget Jesu nach zum grabe
T:Georg Böhm 1661 - 1733
T:Source: Denkmäler Deutscher Tonkunst- erste Folge, 44.Band, nr. XXII. Verlag von Breitkopf & Härtel, Leipzig, 1911
T:Folget Jesu nach zum grabe
T:Wim Looyestijn - 2018. May be freely copied for non-commercial use.
T:Wim Looyestijn - 2018. May be freely copied for non-commercial use.
T:Wim Looyestijn - 2018. May be freely copied for non-commercial use.
T:Wim Looyestijn - 2018. May be freely copied for non-commercial use.
T:Wim Looyestijn - 2018. May be freely copied for non-commercial use.
C:Georg Böhm
C:1661 - 1733
Z:Wim Looyestijn - 2018. May be freely copied for non-commercial use.
%%score 1 { ( 2 3 ) | 4 }
L:1/8
Q:1/4=60
M:2/2
K:G
V:1 treble nm="MusicXML Part"
V:2 treble nm="MusicXML Part"
V:3 treble 
V:4 bass 
V:1
 G2 AB/c/ B2 c2 | d2- d/ e/c/B/ A2 D2 | z8 | G2 AB/c/ B2 c2 | d2- d/ e/c/B/ A2 D2 | %5
w: 1. Fol- get * * Je- su|nach * zum * * Gra- be,||fol- get * * Je- su|nach * zum * * Gra- be:|
w: 8. Bleibt in * * An- dacht,|mei- * ne * * Sin- ne,||bleibt in * * An- dacht,|mei- * ne * * Sin- ne,|
 =F2- F/ G/F/E/ E2 cB | B2 A>G G2 z2 || G2 AB/c/ B2 c2 | d2- d/ e/c/B/ A2 D2 | z8 | %10
w: Jo- * seph * * bat den *|Leich- nam * los,|sei- ner * * See- len|bes- * te * * Gra- be||
w: bei * des * * Hei- lands *|Gra- be * steh-|en, mer- * * ket, was|sein * Feind * * be- ginne;||
 G2 AB/c/ B2 c2 | d2- d/ e/c/B/ A2 D2 | =F2- F/ G/F/E/ E2 cB | B2 A>G G2 z2 || F3 A/G/ A2 BA | %15
w: sei- ner * * See- len|bes- * te * * Gra- be|schen- * ket * * man ihm *|nackt und * bloß.|Rech- tum, * wel- chem *|
w: doch ihr * * wer- det|frö- * lich * * * sein,|doch * ihr * * wer- det *|frö- lich * sein|daß er * al- les *|
 GA/G/ GF/E/ F>E D2 | F3 A/G/ A2 BA | GA/G/ GF/E/ F>E D2 | d4- de/d/ dc/B/ | c4- c d/c/c B/A/ | %20
w: nichts * * sich * * glei- chet, *|und das * gan- ze *|Welt- * * rund * * wei- chet, *|den * * * für * *|al- * len * er be- *|
w: ü- * * ber- * * wun- * den,|und sein * Le- ben *|neu * * ge- * * fun- den, *|Stein * * * und * *|Sie- * gel * hin- dert *|
 B2 z2 Bc/B/ BA/G/ | FE/D/GA Bc/ B<AG/ | G2 z2 z4 |] %23
w: gehrt, zum * * bes- * *|gräb- * * * * * nis ward * be-|schert.|
w: nicht; Je- * * sus * *|aus * * * * * dem Gra- * be|bricht.|
V:2
 DE"^Instrument change"FG/A/ BA/G/FE |"^Instrument change" D G2"^Instrument change" G GF/E/FG | %2
"^Instrument change" A2"^Instrument change" Bc/d/ cBA>G | %3
"^Instrument change" G2"^Instrument change" z2 BA/G/FE | %4
"^Instrument change" D G2"^Instrument change" G GF/E<DE/ | %5
"^Instrument change" =FE/D<"^Instrument change"FG/ E>^F G2 | %6
"^Instrument change" GF/E<"^Instrument change"FG/ G2 z2 || %7
"^Instrument change" DE"^Instrument change"FG/A/ BA/G/FE | %8
"^Instrument change" D G2"^Instrument change" G GF/E/FG | %9
"^Instrument change" A2"^Instrument change" Bc/d/ cBA>G | %10
"^Instrument change" G2"^Instrument change" z2 BA/G/FE | %11
"^Instrument change" D G2"^Instrument change" G GF/E<DE/ | %12
"^Instrument change" =FE/D<"^Instrument change"FG/ E>^F G2 | %13
"^Instrument change" GF/E<"^Instrument change"FG/ G2 z2 || %14
"^Instrument change" FE/D/F"^Instrument change"E DAGF | %15
"^Instrument change" GF/G/"^Instrument change"EF/G/ F>GF/E/D | %16
"^Instrument change" FE/D/F"^Instrument change"E DAGF | %17
"^Instrument change" GF/E/"^Instrument change" E2 D3 E/F/ | %18
"^Instrument change" GF/G/F"^Instrument change"=F E^F^GE | %19
"^Instrument change" A^G/A/E"^Instrument change"_E D=EF=G/A/ | %20
"^Instrument change" B>c"^Instrument change"BA G>A [EG]2 | %21
"^Instrument change" [DF]2 GF GAA>G"^Instrument change" | %22
"^Instrument change" G2"^Instrument change" z2 z4 |] %23
V:3
 B,2 [CD]2 [B,D]2 [A,C]2 | DDFE [A,D]2 D2 | D2 D[EG] [DG]2 [CF]2 | [B,D]2 x2 [B,D]2 [A,C]2 | %4
 DDFE [A,D]2 [F,A,]2 | [G,D]2 [G,B,]2 [G,C]2 [G,C]2 | [B,D]2 [A,C]2 [G,B,]2 x2 || %7
 B,2 [CD]2 [B,D]2 [A,C]2 | DDFE [A,D]2 D2 | D2 D[EG] [DG]2 [CF]2 | [B,D]2 x2 [B,D]2 [A,C]2 | %11
 DDFE [A,D]2 [F,A,]2 | [G,D]2 [G,B,]2 [G,C]2 [G,C]2 | [B,D]2 [A,C]2 [G,B,]2 x2 || %14
 [G,D]3 [A,C] A,2 [B,D]2 | [B,D]2 [A,D]^C [A,D]2 z2 | [A,D]3 [G,^C] [A,D]2 [B,D]2 | %17
 [B,D]2 [A,D][G,^C] [F,A,]2 [F,A,][A,D] | [G,D]2 [B,D]2 [B,D]2 [B,D]2 | C2 [A,C]2 [A,C]2 [CD]2 | %20
 [B,D]2 [B,^D]2 [B,E]2 C>B, | A,2 [G,D][A,C] [B,D][CE][A,G]/B,/[CF] | [B,D]2 x6 |] %23
V:4
 G,2 D,2 G,,2 A,,2 | B,,3 C, D,3 E, | F,2 G,C, D,2 D,,2 | G,,2 z2 G,,2 A,,2 | B,,3 C, D,3 C, | %5
w: |6 * * *|||6 * * *|
 B,,2 G,,2 C,2 E,2 | D,2 D,,2 G,,2 z2 || G,2 D,2 G,,2 A,,2 | B,,3 C, D,3 E, | F,2 G,C, D,2 D,,2 | %10
w: 5`z 7 * 6|* %3 *||6 * * *||
 G,,2 z2 G,,2 A,,2 | B,,3 C, D,3 C, | B,,2 G,,2 C,2 E,2 | D,2 D,,2 G,,2 z2 || D,3 E, F,2 G,2 | %15
w: |6 * * *|5`z 7 * *|* %3 *||
 E,2 A,,2 D,2 z2 | D,,3 E,, F,,2 G,,2 | E,,2 A,,2 D,3 C, | B,,3 A,, ^G,,2 E,,2 | %19
w: * x *||* &x * *|* * 6 *|
 A,,3 G,, F,,2 D,,2 | G,,2 F,,2 E,,2 C,2 | D,C,B,,A,, G,,C,D,D,, | G,,2 z2 z4 |] %23
w: * * 6 *||* * 6 6 * * * *||

